images/zhuyin/36.svg

<svg width="50" height="50" viewBox="0 0 50 50" fill="none" xmlns="http://www.w3.org/2000/svg">
<path d="M23.6875 16.3672C24.1094 16.3672 24.5859 16.6562 25.1172 17.2344C25.6641 17.8906 25.9375 18.4062 25.9375 18.7812C25.9375 18.9375 25.7734 19.1094 25.4453 19.2969C25.2734 19.4219 25.0938 19.625 24.9062 19.9062L19 30.125C18.875 30.3281 18.8125 30.4609 18.8125 30.5234C18.8125 30.6328 18.9062 30.6875 19.0938 30.6875C20.2656 30.6719 22.0859 30.5 24.5547 30.1719C27.0078 29.875 28.7578 29.5859 29.8047 29.3047C30.3359 29.1641 30.7031 29.0938 30.9062 29.0938C31.3438 29.0938 31.8984 29.3203 32.5703 29.7734C33.2734 30.2891 33.625 30.75 33.625 31.1562C33.625 31.4688 33.4375 31.625 33.0625 31.625C32.9062 31.625 32.6797 31.5703 32.3828 31.4609C31.5078 31.2578 30.4219 31.1562 29.125 31.1562C26.9688 31.2031 24.6562 31.4375 22.1875 31.8594C20.3281 32.1719 18.9766 32.5 18.1328 32.8438L17.5938 33.125C17.3281 33.125 17 32.8906 16.6094 32.4219C16.2031 31.9844 16 31.6641 16 31.4609C16 31.2109 16.1328 30.9766 16.3984 30.7578C16.7109 30.4609 17 30.1172 17.2656 29.7266C18.1562 28.3047 19.1406 26.5781 20.2188 24.5469C21.4531 22.125 22.2969 20.3984 22.75 19.3672C23.1875 18.3672 23.4062 17.4844 23.4062 16.7188C23.4062 16.4844 23.5 16.3672 23.6875 16.3672Z" fill="#333333"/>
<path d="M25.1172 17.2344L25.5013 16.9143L25.4935 16.905L25.4854 16.8961L25.1172 17.2344ZM25.4453 19.2969L25.1972 18.8628L25.1734 18.8764L25.1512 18.8925L25.4453 19.2969ZM24.9062 19.9062L24.4902 19.6289L24.4814 19.6422L24.4734 19.656L24.9062 19.9062ZM19 30.125L19.426 30.3871L19.4329 30.3752L19 30.125ZM19.0938 30.6875V31.1875L19.1004 31.1875L19.0938 30.6875ZM24.5547 30.1719L24.4946 29.6755L24.4888 29.6762L24.5547 30.1719ZM29.8047 29.3047L29.6767 28.8213L29.675 28.8218L29.8047 29.3047ZM32.5703 29.7734L32.866 29.3702L32.8581 29.3644L32.8499 29.3589L32.5703 29.7734ZM32.3828 31.4609L32.5557 30.9918L32.5263 30.981L32.4959 30.9739L32.3828 31.4609ZM29.125 31.1562V30.6561L29.1141 30.6564L29.125 31.1562ZM22.1875 31.8594L22.2704 32.3525L22.2717 32.3522L22.1875 31.8594ZM18.1328 32.8438L17.9442 32.3807L17.9224 32.3896L17.9015 32.4005L18.1328 32.8438ZM17.5938 33.125V33.625H17.7163L17.825 33.5683L17.5938 33.125ZM16.6094 32.4219L16.9935 32.1018L16.9849 32.0915L16.9758 32.0816L16.6094 32.4219ZM16.3984 30.7578L16.7163 31.1438L16.73 31.1325L16.7428 31.1203L16.3984 30.7578ZM17.2656 29.7266L17.6791 30.0077L17.6844 29.9999L17.6894 29.992L17.2656 29.7266ZM20.2188 24.5469L20.6605 24.7813L20.6642 24.7739L20.2188 24.5469ZM22.75 19.3672L23.2078 19.5683L23.2081 19.5676L22.75 19.3672ZM23.6875 16.8672C23.8883 16.8672 24.2382 17.0168 24.749 17.5727L25.4854 16.8961C24.9336 16.2957 24.3304 15.8672 23.6875 15.8672V16.8672ZM24.7331 17.5545C24.9936 17.8671 25.1757 18.1307 25.2907 18.3475C25.4084 18.5696 25.4375 18.7085 25.4375 18.7812H26.4375C26.4375 18.479 26.3298 18.1726 26.1742 17.879C26.0157 17.5802 25.7877 17.2579 25.5013 16.9143L24.7331 17.5545ZM25.4375 18.7812C25.4375 18.6777 25.4911 18.6419 25.4528 18.6821C25.4178 18.7187 25.341 18.7806 25.1972 18.8628L25.6934 19.731C25.8778 19.6256 26.047 19.5078 26.1761 19.3726C26.3018 19.2409 26.4375 19.0411 26.4375 18.7812H25.4375ZM25.1512 18.8925C24.9117 19.0667 24.6935 19.324 24.4902 19.6289L25.3223 20.1836C25.494 19.926 25.6351 19.7771 25.7394 19.7012L25.1512 18.8925ZM24.4734 19.656L18.5671 29.8748L19.4329 30.3752L25.3391 20.1565L24.4734 19.656ZM18.5742 29.863C18.5071 29.9719 18.4495 30.0737 18.407 30.1641C18.3757 30.2305 18.3125 30.3696 18.3125 30.5234H19.3125C19.3125 30.5558 19.3086 30.5799 19.3062 30.5925C19.3036 30.6057 19.301 30.6139 19.3004 30.6158C19.2995 30.6187 19.3018 30.611 19.3118 30.5899C19.3318 30.5474 19.3679 30.4812 19.4258 30.387L18.5742 29.863ZM18.3125 30.5234C18.3125 30.7543 18.4289 30.9606 18.6309 31.0784C18.7914 31.172 18.9678 31.1875 19.0938 31.1875V30.1875C19.0322 30.1875 19.068 30.1756 19.1347 30.2146C19.1757 30.2385 19.2262 30.2807 19.2642 30.3471C19.302 30.4134 19.3125 30.4776 19.3125 30.5234H18.3125ZM19.1004 31.1875C20.3038 31.1714 22.1489 30.996 24.6206 30.6675L24.4888 29.6762C22.023 30.004 20.2274 30.1723 19.0871 30.1875L19.1004 31.1875ZM24.6148 30.6683C27.0694 30.3712 28.8503 30.0788 29.9344 29.7876L29.675 28.8218C28.6654 29.093 26.9462 29.3788 24.4946 29.6755L24.6148 30.6683ZM29.9326 29.788C30.4699 29.6458 30.7773 29.5938 30.9062 29.5938V28.5938C30.629 28.5938 30.202 28.6823 29.6767 28.8213L29.9326 29.788ZM30.9062 29.5938C31.1902 29.5938 31.641 29.7498 32.2907 30.188L32.8499 29.3589C32.1558 28.8908 31.4973 28.5938 30.9062 28.5938V29.5938ZM32.2746 30.1766C32.605 30.4189 32.8277 30.6306 32.9638 30.8091C33.1006 30.9885 33.125 31.1008 33.125 31.1562H34.125C34.125 30.8055 33.9736 30.4841 33.7589 30.2026C33.5434 29.9202 33.2388 29.6436 32.866 29.3702L32.2746 30.1766ZM33.125 31.1562C33.125 31.1854 33.1205 31.1883 33.1256 31.1756C33.1282 31.169 33.1328 31.1599 33.1401 31.1497C33.1475 31.1395 33.1559 31.1307 33.1643 31.1237C33.1815 31.1094 33.1899 31.1097 33.1748 31.1139C33.1584 31.1185 33.1232 31.125 33.0625 31.125V32.125C33.3071 32.125 33.5837 32.0759 33.8045 31.8919C34.0427 31.6934 34.125 31.416 34.125 31.1562H33.125ZM33.0625 31.125C32.9992 31.125 32.842 31.0973 32.5557 30.9918L32.21 31.9301C32.5174 32.0434 32.8133 32.125 33.0625 32.125V31.125ZM32.4959 30.9739C31.5714 30.7593 30.4447 30.6562 29.125 30.6562V31.6562C30.399 31.6562 31.4442 31.7563 32.2697 31.948L32.4959 30.9739ZM29.1141 30.6564C26.9297 30.7039 24.5925 30.9411 22.1033 31.3665L22.2717 32.3522C24.72 31.9339 27.0078 31.7024 29.1359 31.6561L29.1141 30.6564ZM22.1046 31.3663C20.2389 31.6799 18.8417 32.015 17.9442 32.3807L18.3215 33.3068C19.1114 32.985 20.4173 32.6639 22.2704 32.3525L22.1046 31.3663ZM17.9015 32.4005L17.3625 32.6817L17.825 33.5683L18.3641 33.287L17.9015 32.4005ZM17.5938 32.625C17.6065 32.625 17.5596 32.6285 17.4391 32.5424C17.3226 32.4592 17.1739 32.3183 16.9935 32.1018L16.2253 32.742C16.4355 32.9942 16.6461 33.2049 16.8578 33.3561C17.0654 33.5043 17.3154 33.625 17.5938 33.625V32.625ZM16.9758 32.0816C16.7831 31.8741 16.6533 31.7098 16.5746 31.5857C16.4864 31.4466 16.5 31.4161 16.5 31.4609H15.5C15.5 31.7089 15.6152 31.9401 15.7301 32.1213C15.8545 32.3175 16.0294 32.5321 16.243 32.7621L16.9758 32.0816ZM16.5 31.4609C16.5 31.4109 16.5202 31.3052 16.7163 31.1438L16.0806 30.3718C15.7454 30.6479 15.5 31.0109 15.5 31.4609H16.5ZM16.7428 31.1203C17.0835 30.7966 17.3953 30.4251 17.6791 30.0077L16.8522 29.4454C16.6047 29.8093 16.3384 30.1252 16.0541 30.3953L16.7428 31.1203ZM17.6894 29.992C18.5882 28.5571 19.5786 26.8195 20.6604 24.7813L19.7771 24.3125C18.7027 26.3367 17.7243 28.0523 16.8419 29.4611L17.6894 29.992ZM20.6642 24.7739C21.8986 22.352 22.7483 20.6141 23.2078 19.5683L22.2922 19.1661C21.8455 20.1828 21.0076 21.898 19.7733 24.3198L20.6642 24.7739ZM23.2081 19.5676C23.6623 18.5293 23.9062 17.5761 23.9062 16.7188H22.9062C22.9062 17.3926 22.7127 18.2051 22.2919 19.1668L23.2081 19.5676ZM23.9062 16.7188C23.9062 16.655 23.9212 16.6997 23.867 16.7674C23.8371 16.8047 23.7979 16.8336 23.7568 16.8507C23.7187 16.8666 23.6918 16.8672 23.6875 16.8672V15.8672C23.4834 15.8672 23.2511 15.9365 23.0861 16.1427C22.9382 16.3277 22.9062 16.5481 22.9062 16.7188H23.9062Z" fill="#333333"/>
</svg>

<svg xmlns="http://www.w3.org/2000/svg" width="50" height="50" fill="none"><path fill="#333" d="M23.688 16.367c.421 0 .898.29 1.43.867.546.657.82 1.172.82 1.547 0 .157-.165.328-.493.516-.172.125-.351.328-.539.61L19 30.124c-.125.203-.188.336-.188.398 0 .11.094.165.282.165 1.172-.016 2.992-.188 5.46-.516 2.454-.297 4.204-.586 5.25-.867.532-.14.9-.211 1.102-.211.438 0 .992.226 1.664.68.703.515 1.055.976 1.055 1.382 0 .313-.188.469-.563.469-.156 0-.382-.055-.68-.164-.874-.203-1.96-.305-3.257-.305-2.156.047-4.469.282-6.938.703-1.859.313-3.21.641-4.054.985l-.54.281c-.265 0-.593-.234-.984-.703-.406-.438-.609-.758-.609-.961 0-.25.133-.484.398-.703.313-.297.602-.64.868-1.031.89-1.422 1.875-3.149 2.953-5.18 1.234-2.422 2.078-4.149 2.531-5.18.438-1 .656-1.883.656-2.648 0-.235.094-.352.282-.352Z"/><path fill="#333" d="m25.117 17.234.384-.32-.008-.009-.008-.009-.368.338Zm.328 2.063-.248-.434-.024.013-.022.016.294.405Zm-.539.61-.416-.278-.009.013-.008.014.433.25ZM19 30.124l.426.262.007-.012-.433-.25Zm.094.563v.5h.006l-.006-.5Zm5.46-.516-.06-.497-.005.001.066.496Zm5.25-.867-.127-.484h-.002l.13.484Zm2.766.468.296-.403-.008-.006-.008-.005-.28.414Zm-.187 1.688.173-.47-.03-.01-.03-.007-.113.487Zm-3.258-.305v-.5h-.01l.01.5Zm-6.938.703.083.493h.002l-.084-.493Zm-4.054.985-.189-.463-.022.009-.02.01.23.444Zm-.54.281v.5h.123l.109-.057-.231-.443Zm-.984-.703.384-.32-.008-.01-.01-.01-.366.34Zm-.21-1.664.317.386.014-.011.013-.013-.345-.362Zm.867-1.031.413.28.005-.007.005-.008-.423-.265Zm2.953-5.18.441.234.004-.007-.445-.227Zm2.531-5.18.458.201-.458-.2Zm.938-2.5c.2 0 .55.15 1.061.706l.736-.677c-.551-.6-1.155-1.029-1.797-1.029v1Zm1.045.688c.26.312.443.576.558.793.117.222.146.36.146.433h1c0-.302-.107-.608-.263-.902a5.804 5.804 0 0 0-.673-.965l-.768.64Zm.704 1.226c0-.103.054-.14.016-.099a1.186 1.186 0 0 1-.256.18l.496.869c.185-.105.354-.223.483-.358.126-.132.262-.332.262-.592h-1Zm-.286.111c-.24.175-.457.432-.66.737l.831.555c.172-.258.313-.407.417-.483l-.588-.809Zm-.678.764-5.906 10.219.866.5 5.906-10.218-.866-.501Zm-5.899 10.207c-.067.109-.125.21-.167.301a.866.866 0 0 0-.095.36h1a.367.367 0 0 1-.006.069c-.002.013-.005.02-.006.023 0 .003.002-.005.012-.026.02-.043.056-.109.114-.203l-.852-.524Zm-.262.66c0 .231.117.438.319.555.16.094.337.11.463.11v-1c-.062 0-.026-.012.04.027a.36.36 0 0 1 .178.308h-1Zm.788.665c1.204-.017 3.049-.192 5.52-.52l-.131-.992c-2.466.328-4.262.496-5.402.512l.013 1Zm5.515-.52c2.454-.297 4.235-.59 5.32-.88l-.26-.966c-1.01.271-2.729.557-5.18.854l.12.992Zm5.318-.88c.537-.142.844-.194.973-.194v-1c-.277 0-.704.088-1.23.227l.257.967Zm.973-.194c.284 0 .735.156 1.385.594l.559-.83c-.694-.467-1.353-.764-1.944-.764v1Zm1.369.583c.33.242.553.454.689.632.137.18.161.292.161.347h1c0-.35-.151-.672-.366-.953-.216-.283-.52-.56-.893-.833l-.591.807Zm.85.98c0 .028-.005.031 0 .019a.145.145 0 0 1 .039-.052c.017-.015.026-.014.01-.01a.437.437 0 0 1-.111.011v1c.244 0 .52-.05.741-.233.239-.199.321-.476.321-.736h-1Zm-.063-.032c-.063 0-.22-.028-.506-.133l-.346.938c.307.113.603.195.852.195v-1Zm-.566-.151c-.925-.215-2.051-.318-3.371-.318v1c1.274 0 2.32.1 3.145.292l.226-.974Zm-3.382-.318c-2.184.048-4.521.285-7.01.71l.168.986c2.448-.418 4.736-.65 6.864-.696l-.022-1Zm-7.01.71c-1.865.314-3.262.649-4.16 1.015l.378.926c.79-.322 2.095-.643 3.948-.955l-.165-.986Zm-4.203 1.035-.538.28.462.887.54-.281-.463-.886Zm-.307.224c.012 0-.034.004-.155-.083a2.562 2.562 0 0 1-.445-.44l-.769.64c.21.252.421.463.633.614.207.148.457.269.736.269v-1Zm-.618-.543a3.66 3.66 0 0 1-.401-.496c-.089-.14-.075-.17-.075-.125h-1c0 .248.115.48.23.66.124.197.3.411.513.641l.733-.68Zm-.476-.621c0-.05.02-.156.216-.317l-.635-.772c-.336.276-.581.639-.581 1.089h1Zm.243-.34c.34-.324.652-.696.936-1.113l-.827-.563c-.247.364-.514.68-.798.95l.689.725Zm.946-1.129c.9-1.435 1.89-3.172 2.971-5.21l-.883-.47c-1.074 2.025-2.053 3.74-2.935 5.15l.847.53Zm2.975-5.218c1.235-2.422 2.084-4.16 2.544-5.206l-.916-.402c-.447 1.017-1.284 2.732-2.519 5.154l.891.454Zm2.544-5.206c.454-1.039.698-1.992.698-2.85h-1c0 .675-.193 1.487-.614 2.449l.916.4Zm.698-2.85c0-.063.015-.018-.039.05a.282.282 0 0 1-.11.083.19.19 0 0 1-.07.016v-1a.752.752 0 0 0-.6.276.908.908 0 0 0-.18.576h1Z"/></svg>
